frontend/public/assets/material-icons/routing.svg

<svg xmlns="http://www.w3.org/2000/svg" viewBox="0 0 32 32"><path fill="#43a047" d="M18 14v-2h8l2-3-2-3h-8V4l-2-2-2 2v6H6l-2 3 2 3h8v10a4 4 0 0 0-4 4h12a4 4 0 0 0-4-4v-6h8l2-3-2-3Z"/></svg>

<svg xmlns="http://www.w3.org/2000/svg" viewBox="0 0 32 32">
  <path d="M18,14V12h8l2-3L26,6H18V4L16,2,14,4v6H6L4,13l2,3h8V26a4,4,0,0,0-4,4H22a4,4,0,0,0-4-4V20h8l2-3-2-3Z" style="fill: #43a047"/>
</svg>
